src/assets/icon/eye.svg

<svg width="16" height="16" viewBox="0 0 16 16" fill="none" xmlns="http://www.w3.org/2000/svg">
<path fill-rule="evenodd" clip-rule="evenodd" d="M2.14415 7.99984C2.52925 8.53094 3.3185 9.53168 4.35779 10.403C5.43539 11.3064 6.69721 11.9998 8 11.9998C9.30279 11.9998 10.5646 11.3064 11.6422 10.403C12.6815 9.53168 13.4708 8.53094 13.8558 7.99984C13.4708 7.46874 12.6815 6.468 11.6422 5.5967C10.5646 4.69327 9.30279 3.99984 8 3.99984C6.69721 3.99984 5.43539 4.69327 4.35779 5.5967C3.3185 6.468 2.52925 7.46874 2.14415 7.99984ZM3.50118 4.57493C4.67566 3.59029 6.23752 2.6665 8 2.6665C9.76248 2.6665 11.3243 3.59029 12.4988 4.57493C13.6847 5.56913 14.5621 6.69793 14.9676 7.26184C15.2865 7.70542 15.2865 8.29426 14.9676 8.73784C14.5621 9.30174 13.6847 10.4305 12.4988 11.4247C11.3243 12.4094 9.76248 13.3332 8 13.3332C6.23752 13.3332 4.67566 12.4094 3.50118 11.4247C2.31531 10.4305 1.43787 9.30174 1.03245 8.73784C0.713539 8.29426 0.713538 7.70542 1.03245 7.26184C1.43787 6.69793 2.31531 5.56913 3.50118 4.57493Z" fill="#64748B"/>
<path fill-rule="evenodd" clip-rule="evenodd" d="M8 9.33317C8.73638 9.33317 9.33333 8.73622 9.33333 7.99984C9.33333 7.26346 8.73638 6.6665 8 6.6665C7.26362 6.6665 6.66667 7.26346 6.66667 7.99984C6.66667 8.73622 7.26362 9.33317 8 9.33317ZM8 10.6665C9.47276 10.6665 10.6667 9.4726 10.6667 7.99984C10.6667 6.52708 9.47276 5.33317 8 5.33317C6.52724 5.33317 5.33333 6.52708 5.33333 7.99984C5.33333 9.4726 6.52724 10.6665 8 10.6665Z" fill="#64748B"/>
</svg>

<svg xmlns="http://www.w3.org/2000/svg" width="16" height="16" fill="none"><path fill="#64748B" fill-rule="evenodd" d="M2.144 8c.385.53 1.174 1.532 2.214 2.403C5.435 11.306 6.698 12 8 12c1.303 0 2.565-.694 3.642-1.597 1.04-.871 1.829-1.872 2.214-2.403-.385-.531-1.175-1.532-2.214-2.403C10.565 4.693 9.302 4 8 4c-1.303 0-2.565.693-3.642 1.597C3.318 6.468 2.529 7.469 2.144 8Zm1.357-3.425C4.676 3.59 6.238 2.666 8 2.666c1.762 0 3.324.924 4.499 1.909 1.186.994 2.063 2.123 2.469 2.687a1.258 1.258 0 0 1 0 1.476c-.406.564-1.283 1.693-2.47 2.687-1.174.984-2.736 1.908-4.498 1.908s-3.324-.924-4.499-1.908c-1.186-.995-2.063-2.123-2.469-2.687a1.258 1.258 0 0 1 0-1.476c.406-.564 1.283-1.693 2.47-2.687Z" clip-rule="evenodd"/><path fill="#64748B" fill-rule="evenodd" d="M8 9.333a1.333 1.333 0 1 0 0-2.666 1.333 1.333 0 0 0 0 2.666Zm0 1.333a2.667 2.667 0 1 0 0-5.333 2.667 2.667 0 0 0 0 5.333Z" clip-rule="evenodd"/></svg>
